X: 16
T:Roddy McCawley
% Nottingham Music Database
S:Saen Smith, via PR
M:4/4
L:1/4
K:G
GA |"G"B2 AB|D2 GA|"G"B3/2c/2 BA|G2 D2|"C"E2 G2|G2 A2|"G"G4-|
B2 Bc|"G"d2 d2|d2 Bd|"C"e2 e2|"G"d2 BA|"Em"G2 E2|"Am"c2 B2|"D"A4-|
A2 Bc|"G"d2 d2|d2 Bd|"C"e2 e2|"G"d2 BA|"Em"G2 E2|"Am"c2 B2|"D"A4-|A2 GA|
"G"B2 AB|D2 GA|"G"B3/2c/2 BA|G2 D2|"C"E2 G2|G2 A2|"G"G4-|G4||<end>
<start>
